Pods/ProtonCore-UIFoundations/libraries/UIFoundations/Sources/Assets.xcassets/Images/IconSet/ic-exclamation-triangle-filled.imageset/ic-exclamation-triangle-filled.svg

<svg width="24" height="24" viewBox="0 0 24 24" fill="none" xmlns="http://www.w3.org/2000/svg">
<path fill-rule="evenodd" clip-rule="evenodd" d="M22.3488 22.5H1.65117C0.385236 22.5 -0.408412 21.1585 0.219669 20.0803L10.5685 2.3149C11.2014 1.22836 12.7986 1.22837 13.4315 2.31491L23.7803 20.0803C24.4084 21.1585 23.6148 22.5 22.3488 22.5ZM12 7.13535C12.9336 7.13535 13.656 7.938 13.5402 8.84673L12.818 14.5136C12.7665 14.9183 12.4158 15.222 12 15.222C11.5843 15.222 11.2336 14.9183 11.182 14.5136L10.4599 8.84673C10.3441 7.938 11.0665 7.13535 12 7.13535ZM13.1542 17.6475C13.1542 18.2728 12.6374 18.7797 12 18.7797C11.3626 18.7797 10.8459 18.2728 10.8459 17.6475C10.8459 17.0223 11.3626 16.5154 12 16.5154C12.6374 16.5154 13.1542 17.0223 13.1542 17.6475Z" fill="#0C0C14"/>
</svg>

<svg xmlns="http://www.w3.org/2000/svg" width="24" height="24" viewBox="0 0 24 24">
  <g class="ic-exclamation-triangle-filled">
    <path fill-rule="evenodd" d="M22.349 22.5H1.65c-1.266 0-2.06-1.341-1.431-2.42l10.35-17.765c.632-1.087 2.23-1.087 2.862 0l10.35 17.765c.627 1.079-.166 2.42-1.432 2.42ZM12 7.135c.934 0 1.656.803 1.54 1.712l-.722 5.667a.819.819 0 0 1-.818.708.82.82 0 0 1-.818-.708l-.722-5.667c-.116-.909.606-1.712 1.54-1.712Zm1.154 10.513c0 .625-.517 1.132-1.154 1.132a1.143 1.143 0 0 1-1.154-1.133c0-.625.517-1.132 1.154-1.132.637 0 1.154.507 1.154 1.133Z" class="Icon"/>
  </g>
</svg>
